X:1
T:Intercession, LM
T:Intercession, LM
T:Early Music for Church Choirs, 1853
T:Public Domain Courtesy of the Cyber Hymnal™
C:Early Music for Church Choirs, 1853
Z:Public Domain
Z:Courtesy of the Cyber Hymnal™
%%score ( 1 2 ) ( 3 4 )
L:1/8
Q:1/4=115
M:3/4
K:G
V:1 treble 
V:2 treble 
V:3 bass 
V:4 bass 
V:1
 [DG]2 | (B2 A2) G2 | c2 [GB]2 [EA]2 | G2 A2 [DF]2 | [DG]4 [DF]2 | [DG]4 [DA]2 | ([DB]2 [Fc]2) B2 | %7
 (B2 A2) [EG]2 | [FA]4 [DG]2 | ([DB]2 A2) G2 | (c2 B2) [FA]2 | (A2 B2) [FA]2 | [EG]4 [EG]2 | %13
 [EA]4 [EB]2 | (c2 B2) [EA]2 | (G2 A2) [DF]2 | [DG]4 |] %17
V:2
 x2 | D4 G2 | EF x4 | D4 x2 | x6 | x6 | x4 (GF) | E4 x2 | x6 | x2 (EF) G2 | E4 x2 | F4 x2 | x6 | %13
 x6 | E4 x2 | D4 x2 | x4 |] %17
V:3
 [G,B,]2 | (D2 C2) [G,B,]2 | (E2 D2) [C,C]2 | (B,2 C2) [D,A,]2 | [G,B,]4 [A,C]2 | [B,D]4 [F,C]2 | %6
 (B,2 A,2) [G,B,]2 | [C,C]4 [E,B,]2 | [D,D]4 [G,B,]2 | (D2 C2) [G,B,]2 | A,2 [G,B,]2 [F,C]2 | %11
 [E,C]2 [^D,B,]2 [D,B,]2 | [E,B,]4 [D,B,]2 | [C,C]4 [B,,^G,]2 | ([A,,A,]2 [B,,D]2) [C,C]2 | %15
 (B,2 C2) [D,A,]2 | [G,,B,]4 |] %17
V:4
 x2 | G,4 x2 | G,4 x2 | D,4 x2 | x6 | x6 | G,4 x2 | x6 | x6 | G,4 x2 | A,2 x4 | x6 | x6 | x6 | x6 | %15
 D,4 x2 | x4 |] %17

